src/assets/svg/hero-card-2.svg

<svg width="55" height="55" viewBox="0 0 55 55" fill="none" xmlns="http://www.w3.org/2000/svg">
<path d="M38.1518 37.059C38.6066 37.254 39.1047 37.1458 39.4729 36.8209C39.7977 36.5394 41.3353 35.1316 41.92 34.7851C42.6563 34.352 43.2194 26.9672 43.2194 26.9889C43.2627 26.5557 43.1111 26.1225 42.8079 25.8193C39.841 22.8091 39.6894 22.4192 36.1594 21.9861C35.1848 21.8562 34.5352 21.8996 34.4053 22.1162C33.8638 22.9824 36.311 24.5632 38.2384 24.5632C38.9747 24.5632 41.2486 26.9671 41.0321 27.5085C40.8805 27.8767 40.9454 30.2372 40.9238 32.836L39.9492 33.3341C39.4078 33.6157 38.7365 34.1138 38.455 34.4819C37.9569 35.11 37.9136 35.1101 37.069 34.6119C36.2677 34.1355 34.8816 34.1572 34.8816 34.6553C34.8816 35.0884 36.5925 36.4527 37.7187 36.9074L38.1518 37.059Z" fill="#000001"/>
<path d="M48.2222 18.6506C48.2438 17.9793 47.9406 17.3296 47.4208 16.9181C46.4463 16.1601 45.3851 16.0735 44.8654 16.6799C43.2195 18.6723 36.5926 17.9576 29.9441 15.0556C25.3746 13.0632 20.0904 12.1753 15.5425 12.6301C5.66713 13.6046 6.68498 13.8429 7.63787 38.0332L8.69902 38.5746C9.73853 39.116 9.82511 39.116 12.7704 38.4663C17.4699 37.4268 25.1363 37.5134 29.5976 38.6179C33.604 39.6141 34.427 39.4409 32.7811 37.8816C29.7492 35.0229 17.6648 33.377 12.7704 35.1745C11.7742 35.5427 10.8431 35.8242 10.6915 35.8242C10.1717 35.8242 11.1462 29.3056 10.6481 15.8136C10.6698 15.8136 20.8916 12.9333 28.493 16.8098C32.6078 18.9105 37.6321 20.2748 41.4004 20.2965H45.0603C45.0603 37.9032 45.2119 39.7442 44.5839 39.7442C44.3024 39.7442 42.5915 39.5491 40.7723 39.3109C37.2423 38.8561 36.7442 38.9429 37.4588 39.9606C38.1518 40.9352 42.5049 41.9963 45.2336 42.1263C47.7458 42.2562 47.4425 41.888 47.5508 40.3504C47.6591 38.4663 47.5508 39.9606 48.2222 18.6506Z" fill="#000001"/>
<path d="M15.1742 20.3616C15.8455 20.1883 16.9934 19.2138 17.1883 18.6507C17.2749 18.3692 18.0762 18.3908 20.5451 18.6724C26.6522 19.387 23.8368 16.8532 22.6674 16.5284C21.303 16.1386 19.1807 16.2902 16.7552 16.6583C16.3004 16.7233 15.759 17.0698 15.5641 17.438C15.3692 17.8061 14.3729 18.4125 13.6799 19.1272C11.7958 21.0113 11.6009 30.4319 13.42 30.7134C14.9143 30.93 15.4124 31.1249 16.1704 31.8395C17.1016 32.6842 17.2099 32.5975 23.382 32.5975C24.2266 32.5975 24.6814 30.5185 19.3755 30.3019C17.1882 30.2153 16.7118 30.0854 15.9322 29.4357C15.4341 29.0242 14.8927 28.6777 14.7411 28.6777C14.0697 28.6777 14.5028 20.5132 15.1742 20.3616Z" fill="#000001"/>
<path d="M28.0814 32.0346C28.3197 31.7314 28.4929 30.5619 28.4929 30.4536C28.4929 30.3454 29.1426 30.3887 29.8573 30.1938C32.4994 29.4791 32.4344 26.2739 29.749 24.758C29.0127 24.3465 26.3273 24.1949 26.6954 22.549C26.9553 21.3362 27.8649 21.7477 28.8394 22.2242C29.5108 22.5274 30.0955 22.8739 30.6802 23.177C31.7197 23.7185 31.6981 22.3324 31.0051 21.7477C30.5719 21.3796 29.9439 21.0114 29.3159 20.7299C29.186 20.6649 29.4457 20.0369 29.2292 19.5821C28.7744 18.6508 27.4751 18.2394 27.4751 19.0407C27.4751 19.1489 27.2801 20.0152 27.2801 20.0152C27.2584 20.0152 24.9629 18.954 24.0967 21.5095C23.6635 22.7872 24.2049 24.6497 25.8292 25.1478C27.1286 25.5593 29.4891 25.9707 29.3159 27.3134C29.0777 29.1759 25.9158 27.8982 25.8941 27.8982C23.6418 27.3351 22.1043 28.0714 24.768 29.2625C25.2228 29.4791 26.2406 29.739 26.4572 29.9339C26.6738 30.1288 26.4355 31.3632 26.4355 31.5798C26.4788 32.5327 27.5617 32.7492 28.0814 32.0346Z" fill="#000001"/>
</svg>

<svg xmlns="http://www.w3.org/2000/svg" width="55" height="55" fill="none">
  <path fill="#000001" d="M38.15 37.06c.46.2.95.09 1.32-.24.33-.28 1.87-1.69 2.45-2.03.74-.44 1.3-7.82 1.3-7.8.04-.43-.1-.87-.41-1.17-2.97-3.01-3.12-3.4-6.65-3.83-.98-.13-1.62-.09-1.75.13-.55.86 1.9 2.44 3.83 2.44.73 0 3 2.4 2.8 2.95-.16.37-.1 2.73-.12 5.33l-.97.5c-.54.28-1.21.77-1.5 1.14-.5.63-.54.63-1.38.13-.8-.47-2.19-.45-2.19.05 0 .43 1.71 1.8 2.84 2.25l.43.15Z"/>
  <path fill="#000001" d="M48.22 18.65a2.14 2.14 0 0 0-.8-1.73c-.97-.76-2.03-.85-2.55-.24-1.65 2-8.28 1.28-14.93-1.62a29.9 29.9 0 0 0-14.4-2.43c-9.87.97-8.86 1.21-7.9 25.4l1.06.54c1.04.55 1.13.55 4.07-.1 4.7-1.04 12.37-.96 16.83.15 4 1 4.83.82 3.18-.74-3.03-2.86-15.12-4.5-20.01-2.7-1 .36-1.93.64-2.08.64-.52 0 .46-6.51-.04-20 .02 0 10.24-2.89 17.84.99 4.12 2.1 9.14 3.46 12.91 3.49h3.66c0 17.6.15 19.44-.48 19.44-.28 0-1.99-.2-3.8-.43-3.54-.45-4.04-.37-3.32.65.7.98 5.04 2.04 7.77 2.17 2.52.13 2.21-.24 2.32-1.78.1-1.88 0-.39.67-21.7Z"/>
  <path fill="#000001" d="M15.17 20.36a3.98 3.98 0 0 0 2.02-1.7c.08-.3.89-.27 3.36.01 6.1.72 3.29-1.82 2.12-2.14-1.37-.4-3.49-.24-5.91.13-.46.06-1 .41-1.2.78-.2.37-1.19.97-1.88 1.69-1.88 1.88-2.08 11.3-.26 11.58 1.5.22 2 .41 2.75 1.13.93.84 1.04.76 7.21.76.85 0 1.3-2.08-4-2.3-2.2-.08-2.67-.21-3.45-.86a3.85 3.85 0 0 0-1.19-.76c-.67 0-.24-8.17.43-8.32Z"/>
  <path fill="#000001" d="M28.08 32.03c.24-.3.41-1.47.41-1.58 0-.1.65-.06 1.37-.26 2.64-.71 2.57-3.92-.11-5.43-.74-.41-3.42-.57-3.05-2.21.26-1.21 1.16-.8 2.14-.33.67.3 1.26.65 1.84.96 1.04.54 1.02-.85.33-1.43a7.44 7.44 0 0 0-1.7-1.02c-.12-.07.14-.7-.08-1.15-.46-.93-1.75-1.34-1.75-.54 0 .1-.2.98-.2.98-.02 0-2.32-1.07-3.18 1.49-.44 1.28.1 3.14 1.73 3.64 1.3.4 3.66.82 3.49 2.16-.24 1.87-3.4.59-3.43.59-2.25-.56-3.79.17-1.12 1.36.45.22 1.47.48 1.69.67.21.2-.02 1.43-.02 1.65.04.95 1.12 1.17 1.64.45Z"/>
</svg>
